X:1
T:The Amazing Mushroom
L:1/8
M:4/4
I:linebreak $
K:D
V:1 treble 
V:1
 fA(3AAA BcdB | AF DF EFDE | FA(3AAA GB(3BBB | Aceg fede | fA (3AAA BcdB |$ AFDF (3EFE DE | %6
 FA(3AAA GB(3BBB | Aceg fdde :| f2 af gfed | gB(3BBB BedB |$ A2 eA fAeA | Aceg fede | f2 af gfed | %13
 gB(3BBB BcdB | A2 eA fAeA |$ Aceg fdde :| %16
